X: 1
T: Hick's
M: 4/4
L: 1/8
R: hornpipe
K: Gmaj
Bc|dBGB dBGB|cBAG FADc|dBGB cBAG|FADD D2Bc|
dBGB dBed|cBAG FADc|BcBG DFAF|G2GG G2:|
|:dc|BGBd eceg|fdfa gfed|gfgd gbag|f2d2 d2dc|
BGBd eceg|fdfa gfed|b2bg dfaf|g2fg g2:|
